src/styles/Icons/assets/category/filme.svg

<svg xmlns="http://www.w3.org/2000/svg" viewBox="0 0 24 24"><path d="M12 0C5.36 0 0 5.36 0 12s5.36 12 12 12 12-5.36 12-12S18.64 0 12 0z"/><path d="M16.298 10H8v-.559l8.66-1.261a.35.35 0 00.297-.395l-.197-1.44a.352.352 0 00-.398-.297l-9.3 1.357a.352.352 0 00-.296.399L7 9.387v6.911c0 .388.314.702.702.702h8.597a.701.701 0 00.701-.702v-5.597a.701.701 0 00-.702-.701zm-1.174-3.062l.99-.144.102.742-1.482.216.39-.814zm-2.267.331l1.302-.19-.391.813-1.302.19.391-.813zm-2.919.426l1.954-.285-.39.812-1.954.284.39-.811zm-.964.14l-.39.811-.963.14-.109-.737 1.462-.214zm4.484 5.843a.353.353 0 01-.123.123l-1.892 1.119a.35.35 0 01-.529-.301v-2.237a.35.35 0 01.529-.302l1.892 1.119a.35.35 0 01.123.479z" fill-rule="evenodd" clip-rule="evenodd" fill="#fff"/></svg>

<?xml version="1.0" encoding="utf-8"?>
<!-- Generator: Adobe Illustrator 23.0.4, SVG Export Plug-In . SVG Version: 6.00 Build 0)  -->
<svg version="1.1" id="Layer_1" xmlns="http://www.w3.org/2000/svg" xmlns:xlink="http://www.w3.org/1999/xlink" x="0px" y="0px"
	 viewBox="0 0 24 24" style="enable-background:new 0 0 24 24;" xml:space="preserve">

<path id="Path" d="M12,0C5.36,0,0,5.36,0,12s5.36,12,12,12s12-5.36,12-12S18.64,0,12,0z"/>
<path style="fill-rule: evenodd;clip-rule: evenodd;fill:#FFFFFF;" d="M16.298,10H8V9.441l8.66-1.261c0.191-0.028,0.323-0.204,0.297-0.395l-0.197-1.44
	c-0.028-0.192-0.206-0.324-0.398-0.297l-9.3,1.357C6.87,7.434,6.738,7.612,6.766,7.804L7,9.387v1.315V11v5.298
	C7,16.686,7.314,17,7.702,17h8.597C16.686,17,17,16.686,17,16.298v-5.597C17,10.314,16.686,10,16.298,10z M15.124,6.938l0.99-0.144
	l0.102,0.742l-1.482,0.216L15.124,6.938z M12.857,7.269l1.302-0.19l-0.391,0.813l-1.302,0.19L12.857,7.269z M9.938,7.695
	l1.954-0.285l-0.39,0.812L9.548,8.506L9.938,7.695z M8.974,7.835l-0.39,0.811l-0.963,0.14L7.512,8.049L8.974,7.835z M13.458,13.678
	c-0.03,0.051-0.073,0.093-0.123,0.123l-1.892,1.119c-0.167,0.099-0.382,0.043-0.48-0.123c-0.032-0.054-0.049-0.116-0.049-0.178
	v-2.237c0-0.194,0.157-0.351,0.351-0.351c0.063,0,0.124,0.017,0.178,0.049l1.892,1.119C13.501,13.297,13.557,13.512,13.458,13.678z"
	/>
</svg>
